src/shared/assets/image/calendar/11-novemder.svg

<svg width="24" height="24" viewBox="0 0 24 24" fill="none" xmlns="http://www.w3.org/2000/svg">
<g clip-path="url(#clip0_1_398)">
<path d="M19.5 2H18V0.5C18 0.224 17.776 0 17.5 0C17.224 0 17 0.224 17 0.5V2H7V0.5C7 0.224 6.776 0 6.5 0C6.224 0 6 0.224 6 0.5V2H4.5C2.019 2 0 4.019 0 6.5V19.5C0 21.981 2.019 24 4.5 24H5.5C5.776 24 6 23.776 6 23.5C6 23.224 5.776 23 5.5 23H4.5C2.57 23 1 21.43 1 19.5V9H23V13.5C23 13.776 23.224 14 23.5 14C23.776 14 24 13.776 24 13.5V6.5C24 4.019 21.981 2 19.5 2ZM1 8V6.5C1 4.57 2.57 3 4.5 3H19.5C21.43 3 23 4.57 23 6.5V8H1Z" fill="#474A55"/>
<path d="M5.28 22.07C5.14667 22.07 5.04333 22.0333 4.97 21.96C4.90333 21.88 4.87 21.7733 4.87 21.64V15.31C4.87 15.17 4.90333 15.0633 4.97 14.99C5.04333 14.9167 5.14667 14.88 5.28 14.88C5.41333 14.88 5.51333 14.9167 5.58 14.99C5.65333 15.0633 5.69 15.17 5.69 15.31V18.07H9.92V15.31C9.92 15.17 9.95333 15.0633 10.02 14.99C10.0933 14.9167 10.1967 14.88 10.33 14.88C10.4633 14.88 10.5633 14.9167 10.63 14.99C10.7033 15.0633 10.74 15.17 10.74 15.31V21.64C10.74 21.7733 10.7033 21.88 10.63 21.96C10.5633 22.0333 10.4633 22.07 10.33 22.07C10.1967 22.07 10.0933 22.0333 10.02 21.96C9.95333 21.88 9.92 21.7733 9.92 21.64V18.78H5.69V21.64C5.69 21.7733 5.65667 21.88 5.59 21.96C5.52333 22.0333 5.42 22.07 5.28 22.07ZM14.4374 22.09C13.9641 22.09 13.5541 21.9867 13.2074 21.78C12.8608 21.5733 12.5908 21.2833 12.3974 20.91C12.2108 20.53 12.1174 20.0833 12.1174 19.57C12.1174 19.1833 12.1708 18.8367 12.2774 18.53C12.3841 18.2167 12.5408 17.95 12.7474 17.73C12.9541 17.51 13.1974 17.3433 13.4774 17.23C13.7641 17.11 14.0841 17.05 14.4374 17.05C14.9108 17.05 15.3208 17.1533 15.6674 17.36C16.0141 17.5667 16.2808 17.86 16.4674 18.24C16.6608 18.6133 16.7574 19.0567 16.7574 19.57C16.7574 19.9567 16.7041 20.3033 16.5974 20.61C16.4908 20.9167 16.3341 21.1833 16.1274 21.41C15.9208 21.63 15.6741 21.8 15.3874 21.92C15.1074 22.0333 14.7908 22.09 14.4374 22.09ZM14.4374 21.44C14.7374 21.44 15.0008 21.3667 15.2274 21.22C15.4541 21.0733 15.6274 20.86 15.7474 20.58C15.8741 20.3 15.9374 19.9633 15.9374 19.57C15.9374 18.9633 15.8008 18.5 15.5274 18.18C15.2608 17.86 14.8974 17.7 14.4374 17.7C14.1308 17.7 13.8641 17.7733 13.6374 17.92C13.4174 18.06 13.2441 18.27 13.1174 18.55C12.9974 18.8233 12.9374 19.1633 12.9374 19.57C12.9374 20.17 13.0741 20.6333 13.3474 20.96C13.6208 21.28 13.9841 21.44 14.4374 21.44ZM21.4815 22.07C21.3548 22.07 21.2582 22.0367 21.1915 21.97C21.1248 21.8967 21.0915 21.8 21.0915 21.68V20.15H20.3815C20.1215 20.15 19.8982 20.2167 19.7115 20.35C19.5248 20.4833 19.3748 20.6467 19.2615 20.84L18.6915 21.84C18.6315 21.94 18.5615 22.0067 18.4815 22.04C18.4015 22.0733 18.3215 22.08 18.2415 22.06C18.1615 22.04 18.0915 22 18.0315 21.94C17.9715 21.88 17.9348 21.81 17.9215 21.73C17.9082 21.6433 17.9282 21.5533 17.9815 21.46L18.4615 20.65C18.5748 20.45 18.7248 20.2833 18.9115 20.15C19.0982 20.0167 19.2882 19.95 19.4815 19.95H19.6115V20.04C19.0648 20.04 18.6415 19.9133 18.3415 19.66C18.0415 19.4067 17.8915 19.0533 17.8915 18.6C17.8915 18.3 17.9548 18.0433 18.0815 17.83C18.2148 17.61 18.4148 17.44 18.6815 17.32C18.9482 17.2 19.2782 17.14 19.6715 17.14H21.4315C21.5715 17.14 21.6782 17.1767 21.7515 17.25C21.8248 17.3233 21.8615 17.4267 21.8615 17.56V21.68C21.8615 21.8 21.8248 21.8967 21.7515 21.97C21.6848 22.0367 21.5948 22.07 21.4815 22.07ZM19.8215 19.56H21.0915V17.71H19.8215C19.4282 17.71 19.1382 17.7933 18.9515 17.96C18.7648 18.12 18.6715 18.3433 18.6715 18.63C18.6715 18.9233 18.7648 19.1533 18.9515 19.32C19.1382 19.48 19.4282 19.56 19.8215 19.56Z" fill="#474A55"/>
</g>
<defs>
<clipPath id="clip0_1_398">
<rect width="24" height="24" fill="white"/>
</clipPath>
</defs>
</svg>

<svg width="24" height="24" fill="none" xmlns="http://www.w3.org/2000/svg"><g clip-path="url(#a)" fill="#474A55"><path d="M19.5 2H18V.5a.5.5 0 0 0-1 0V2H7V.5a.5.5 0 0 0-1 0V2H4.5A4.5 4.5 0 0 0 0 6.5v13A4.5 4.5 0 0 0 4.5 24h1a.5.5 0 0 0 0-1h-1A3.5 3.5 0 0 1 1 19.5V9h22v4.5a.5.5 0 0 0 1 0v-7A4.5 4.5 0 0 0 19.5 2ZM1 8V6.5A3.5 3.5 0 0 1 4.5 3h15A3.5 3.5 0 0 1 23 6.5V8H1Z"/><path d="M5.28 22.07a.42.42 0 0 1-.31-.11.48.48 0 0 1-.1-.32v-6.33c0-.14.03-.25.1-.32a.42.42 0 0 1 .31-.11c.13 0 .23.04.3.11.07.07.11.18.11.32v2.76h4.23v-2.76c0-.14.03-.25.1-.32a.42.42 0 0 1 .31-.11c.13 0 .23.04.3.11.07.07.11.18.11.32v6.33c0 .13-.04.24-.11.32-.07.07-.17.11-.3.11a.42.42 0 0 1-.31-.11.48.48 0 0 1-.1-.32v-2.86H5.69v2.86c0 .13-.03.24-.1.32-.07.07-.17.11-.31.11Zm9.16.02c-.48 0-.89-.1-1.23-.31-.35-.2-.62-.5-.81-.87a3 3 0 0 1-.28-1.34c0-.39.05-.73.16-1.04a2.04 2.04 0 0 1 1.2-1.3c.28-.12.6-.18.96-.18.47 0 .88.1 1.23.31.34.2.61.5.8.88.2.37.29.82.29 1.33 0 .39-.06.73-.16 1.04a2.13 2.13 0 0 1-1.21 1.31c-.28.11-.6.17-.95.17Zm0-.65c.3 0 .56-.07.79-.22.22-.15.4-.36.52-.64s.19-.62.19-1.01c0-.6-.14-1.07-.41-1.39a1.34 1.34 0 0 0-1.1-.48c-.3 0-.57.07-.8.22-.21.14-.39.35-.51.63-.12.27-.18.61-.18 1.02 0 .6.13 1.06.4 1.39.28.32.64.48 1.1.48Zm7.04.63c-.13 0-.22-.03-.29-.1a.41.41 0 0 1-.1-.29v-1.53h-.7c-.27 0-.5.07-.68.2-.19.13-.34.3-.45.49l-.57 1a.46.46 0 0 1-.2.2.37.37 0 0 1-.25.02.45.45 0 0 1-.2-.12.38.38 0 0 1-.12-.21.41.41 0 0 1 .06-.27l.48-.81c.11-.2.26-.37.45-.5s.38-.2.57-.2h.13v.09c-.55 0-.97-.13-1.27-.38-.3-.25-.45-.6-.45-1.06a1.3 1.3 0 0 1 .79-1.28c.27-.12.6-.18 1-.18h1.75c.14 0 .25.04.32.11s.11.18.11.31v4.12a.4.4 0 0 1-.1.29.36.36 0 0 1-.28.1Zm-1.66-2.51h1.27v-1.85h-1.27c-.4 0-.68.08-.87.25a.83.83 0 0 0-.28.67c0 .3.1.52.28.69.19.16.48.24.87.24Z"/></g><defs><clipPath id="a"><path fill="#fff" d="M0 0h24v24H0z"/></clipPath></defs></svg>
